X: 15
T: Gondora no uta
T: The Gondola Song
C:Tune: Shinpei Nakayama
%C:Words: Isamu Yoshii
O:Japan 1915
M:6/8
L:1/8
F:http://www.asahi-net.or.jp/~mf4n-nmr/abc_notation.html 2008-4-5
K:C
[| "C"C2C   (CD)E | "C"(GE)c     G3 |     GAG     E{D}CG |     E3-   E2 z \
|  "C"C2C   (CD)E |    (GE)c     G3 | "F"(CD)A "G7"(GD)E | "C" C3-   C2 z |
|  "G"G2G   (Ge)d | "C"(cE)A     G3 |     C2D      (EC)A | "G"(G3 "C"E2)z \
|  (CD)E "F"(Gc)A |    (dc)A "G7"G3 | "F"(CD)A "G7"(GD)E | "C" C3-   C2 z |]
%%sep 3 1 500
